storage/app/icons/phosphoricons/fill/calendar-dots-fill.svg

<svg xmlns="http://www.w3.org/2000/svg" fill="currentColor" viewBox="0 0 256 256"><path d="M208 32h-24v-8a8 8 0 0 0-16 0v8H88v-8a8 8 0 0 0-16 0v8H48a16 16 0 0 0-16 16v160a16 16 0 0 0 16 16h160a16 16 0 0 0 16-16V48a16 16 0 0 0-16-16M84 184a12 12 0 1 1 12-12 12 12 0 0 1-12 12m44 0a12 12 0 1 1 12-12 12 12 0 0 1-12 12m0-40a12 12 0 1 1 12-12 12 12 0 0 1-12 12m44 40a12 12 0 1 1 12-12 12 12 0 0 1-12 12m0-40a12 12 0 1 1 12-12 12 12 0 0 1-12 12m36-64H48V48h24v8a8 8 0 0 0 16 0v-8h80v8a8 8 0 0 0 16 0v-8h24Z"/></svg>

<svg xmlns="http://www.w3.org/2000/svg" viewBox="0 0 256 256" fill="currentColor"><path d="M208,32H184V24a8,8,0,0,0-16,0v8H88V24a8,8,0,0,0-16,0v8H48A16,16,0,0,0,32,48V208a16,16,0,0,0,16,16H208a16,16,0,0,0,16-16V48A16,16,0,0,0,208,32ZM84,184a12,12,0,1,1,12-12A12,12,0,0,1,84,184Zm44,0a12,12,0,1,1,12-12A12,12,0,0,1,128,184Zm0-40a12,12,0,1,1,12-12A12,12,0,0,1,128,144Zm44,40a12,12,0,1,1,12-12A12,12,0,0,1,172,184Zm0-40a12,12,0,1,1,12-12A12,12,0,0,1,172,144Zm36-64H48V48H72v8a8,8,0,0,0,16,0V48h80v8a8,8,0,0,0,16,0V48h24Z"/></svg>
